assets/steambattle.svg

<?xml version="1.0" encoding="utf-8"?>
<!-- Generator: Adobe Illustrator 21.0.2, SVG Export Plug-In . SVG Version: 6.00 Build 0)  -->
<svg version="1.1" id="Layer_1" xmlns="http://www.w3.org/2000/svg" xmlns:xlink="http://www.w3.org/1999/xlink" x="0px" y="0px"
	 viewBox="0 0 462.5 88.5" style="enable-background:new 0 0 462.5 88.5;" xml:space="preserve">
<style type="text/css">
	.st0{fill:#FFFFFF;}
	.st1{fill:none;}
</style>
<g>
	<g>
		<path class="st0" d="M44.1,0C20.8,0,1.8,17.9,0,40.7l23.7,9.8c2-1.4,4.4-2.2,7-2.2c0.2,0,0.5,0,0.7,0L42,33.1c0-0.1,0-0.1,0-0.2
			c0-9.2,7.5-16.7,16.7-16.7c9.2,0,16.7,7.5,16.7,16.7c0,9.2-7.5,16.7-16.7,16.7c-0.1,0-0.3,0-0.4,0l-15,10.7c0,0.2,0,0.4,0,0.6
			c0,6.9-5.6,12.5-12.5,12.5c-6.1,0-11.1-4.3-12.3-10.1l-17-7c5.2,18.6,22.3,32.2,42.6,32.2c24.4,0,44.2-19.8,44.2-44.2
			C88.3,19.8,68.5,0,44.1,0z"/>
		<path class="st0" d="M27.7,67.1l-5.4-2.2c1,2,2.6,3.7,4.8,4.6c4.8,2,10.3-0.3,12.3-5.1c1-2.3,1-4.9,0-7.2c-1-2.3-2.8-4.1-5.1-5.1
			c-2.3-1-4.8-0.9-6.9-0.1l5.6,2.3c3.5,1.5,5.2,5.5,3.7,9C35.3,66.9,31.2,68.6,27.7,67.1z"/>
		<path class="st0" d="M69.8,32.8c0-6.1-5-11.1-11.1-11.1s-11.1,5-11.1,11.1c0,6.1,5,11.1,11.1,11.1S69.8,39,69.8,32.8z M50.3,32.8
			c0-4.6,3.7-8.4,8.4-8.4c4.6,0,8.4,3.7,8.4,8.4c0,4.6-3.7,8.3-8.4,8.3C54.1,41.2,50.3,37.4,50.3,32.8z"/>
	</g>
	<g>
		<path class="st0" d="M135.6,30.3l-3,5.2c-2.3-1.6-5.4-2.6-8.1-2.6c-3.1,0-5,1.3-5,3.6c0,2.8,3.4,3.4,8.4,5.2
			c5.4,1.9,8.5,4.2,8.5,9.1c0,6.8-5.3,10.6-13,10.6c-3.7,0-8.3-1-11.7-3.1l2.2-5.8c2.8,1.5,6.2,2.4,9.2,2.4c4.1,0,6-1.5,6-3.7
			c0-2.5-2.9-3.3-7.7-4.9c-5.4-1.8-9.1-4.2-9.1-9.7c0-6.2,5-9.8,12.1-9.8C129.3,27,133.3,28.6,135.6,30.3z"/>
		<path class="st0" d="M158.7,33.6v27.3h-7V33.6h-10.1v-6h27.2v6H158.7z"/>
		<path class="st0" d="M183.5,33.5v7.5h13.4v6h-13.4v7.8H199v6h-22.5V27.6H199v6H183.5z"/>
		<path class="st0" d="M214.6,54.4l-2.2,6.5h-7.3l12.5-33.3h7l12.8,33.3h-7.6l-2.3-6.5H214.6z M221.1,35.5l-4.5,13.3h9.2L221.1,35.5
			z"/>
		<path class="st0" d="M273.3,40.5l-9.1,19.5h-3.9l-9-19.3v20.3h-6.7V27.6h6.7l11.2,24.1l10.8-24.1h6.7v33.3h-6.7L273.3,40.5z"/>
		<path class="st0" d="M293.5,31.8c0,2.9-2.1,4.6-4.6,4.6c-2.5,0-4.6-1.8-4.6-4.6c0-2.9,2.2-4.6,4.6-4.6
			C291.3,27.1,293.5,28.9,293.5,31.8z M285,31.8c0,2.4,1.7,3.9,3.8,3.9c2.1,0,3.8-1.5,3.8-3.9c0-2.4-1.7-3.9-3.8-3.9
			C286.7,27.9,285,29.4,285,31.8z M288.9,29.4c1.2,0,1.6,0.6,1.6,1.3c0,0.6-0.4,1-0.8,1.3l1.1,2h-0.9l-0.9-1.8H288V34h-0.7v-4.6
			H288.9z M288.1,31.5h0.8c0.5,0,0.8-0.3,0.8-0.7c0-0.4-0.2-0.7-0.8-0.7h-0.8V31.5z"/>
	</g>
</g>
<path class="st1" d="M319.4,43.2c5.2,2,7.5,6.1,6.2,11.3c-0.8,3.2-3,4.9-5.9,5.8c-1.4,0.4-2.8,0.7-4.2,0.7c-3.9,0.1-8.3,0-12.2,0
	c-0.1,0,0-22.2,0-33.7c0,0,12.2-0.2,15,0.6c5.3,1.5,7.2,7.8,3.9,12.3C321.3,41.5,320.4,42.1,319.4,43.2z M306.4,58
	c3.5,0,6.8,0.2,10.1,0c3.6-0.2,5.9-2.6,6-5.7c0.1-3.7-1.6-6.1-5.4-6.5c-3.5-0.4-7.1-0.1-10.7-0.1C306.4,49.6,306.4,53.8,306.4,58z
	 M306.5,42.3c2.5,0,4.9,0.1,7.2-0.1c1.3-0.1,2.7-0.6,3.9-1.3c2.2-1.2,3.1-3.7,2.7-6.5c-0.4-2-2-3.8-4.5-4.1
	c-3.1-0.4-9.3-0.3-9.3-0.3C306.5,34.4,306.5,38.1,306.5,42.3z"/>
<path class="st1" d="M400.4,60.9c-1.2,0-2.1,0-3.1,0c0-10.3,0-20.5,0-30.9c-3.9,0-7.7,0-11.5,0c0-1.1,0-1.9,0-2.9
	c8.7,0,17.3,0,26.1,0c0,0.9,0,1.7,0,2.8c-3.7,0-7.5,0-11.4,0C400.4,40.3,400.4,50.5,400.4,60.9z"/>
<path class="st1" d="M420.2,58.2c5.6,0,10.9,0,16.4,0c0,0.9,0,1.7,0,2.7c-6.5,0-12.9,0-19.5,0c0-11.2,0-22.4,0-33.8c1,0,2,0,3.2,0
	C420.2,37.5,420.2,47.8,420.2,58.2z"/>
<path class="st1" d="M371.5,60.9c-1.2,0-2.1,0-3.1,0c0-10.3,0-20.5,0-30.9c-3.9,0-7.7,0-11.5,0c0-1.1,0-1.9,0-2.9
	c8.7,0,17.3,0,26.1,0c0,0.9,0,1.7,0,2.8c-3.7,0-7.5,0-11.4,0C371.5,40.3,371.5,50.5,371.5,60.9z"/>
<path class="st1" d="M346.7,27.1h-4.5c-2.7,7.4-6,16.5-8.7,23.7c-1.1,2.9-2.6,6.9-3.8,10.1h3.5c0,0,3.5-8.9,3.4-8.8
	c5-0.1,10.5,0,15.5,0c0.8,2.2,3.3,8.9,3.3,8.9h3.6c-0.2-0.5-0.3-1-0.4-1.2C354.9,49.6,350.4,37.5,346.7,27.1z M337.6,48.9
	c2.2-6.1,4.4-12.1,6.8-18.5c2.3,6.3,4.4,12.3,6.7,18.5C346.5,48.9,342.2,48.9,337.6,48.9z"/>
<g>
	<path class="st1" d="M443.4,27c-0.6,0-1.2,0.1-1.8,0.1c0,11.4,0,22.6,0,33.8c7,0,13.9,0,20.8,0c0-1,0-1.9,0-2.9
		c-5.9,0-11.7,0-17.5,0c0-4.4,0-8.6,0-13c5.3,0,10.4,0,15.6,0c0-1,0-1.8,0-2.8c-5.2,0-10.4,0-15.7,0c0-4.2,0-8.1,0-12.3
		c3.3,0,10.7,0,17.6,0V27C455.2,27,446.8,27,443.4,27z"/>
</g>
</svg>

<?xml version="1.0" encoding="UTF-8"?>
<svg width="463px" height="89px" viewBox="0 0 463 89" version="1.1" xmlns="http://www.w3.org/2000/svg" xmlns:xlink="http://www.w3.org/1999/xlink">
    <!-- Generator: Sketch 42 (36781) - http://www.bohemiancoding.com/sketch -->
    <title>Group</title>
    <desc>Created with Sketch.</desc>
    <defs></defs>
    <g id="Page-1" stroke="none" stroke-width="1" fill="none" fill-rule="evenodd">
        <g id="Group" fill="#FFFFFF">
            <path d="M44.1,0 C20.8,0 1.8,17.9 0,40.7 L23.7,50.5 C25.7,49.1 28.1,48.3 30.7,48.3 L31.4,48.3 L42,33.1 L42,32.9 C42,23.7 49.5,16.2 58.7,16.2 C67.9,16.2 75.4,23.7 75.4,32.9 C75.4,42.1 67.9,49.6 58.7,49.6 L58.3,49.6 L43.3,60.3 L43.3,60.9 C43.3,67.8 37.7,73.4 30.8,73.4 C24.7,73.4 19.7,69.1 18.5,63.3 L1.5,56.3 C6.7,74.9 23.8,88.5 44.1,88.5 C68.5,88.5 88.3,68.7 88.3,44.3 C88.3,19.8 68.5,0 44.1,0 Z" id="Shape" fill-rule="nonzero"></path>
            <path d="M27.7,67.1 L22.3,64.9 C23.3,66.9 24.9,68.6 27.1,69.5 C31.9,71.5 37.4,69.2 39.4,64.4 C40.4,62.1 40.4,59.5 39.4,57.2 C38.4,54.9 36.6,53.1 34.3,52.1 C32,51.1 29.5,51.2 27.4,52 L33,54.3 C36.5,55.8 38.2,59.8 36.7,63.3 C35.3,66.9 31.2,68.6 27.7,67.1 Z" id="Shape" fill-rule="nonzero"></path>
            <path d="M69.8,32.8 C69.8,26.7 64.8,21.7 58.7,21.7 C52.6,21.7 47.6,26.7 47.6,32.8 C47.6,38.9 52.6,43.9 58.7,43.9 C64.8,43.9 69.8,39 69.8,32.8 Z M50.3,32.8 C50.3,28.2 54,24.4 58.7,24.4 C63.3,24.4 67.1,28.1 67.1,32.8 C67.1,37.4 63.4,41.1 58.7,41.1 C54.1,41.2 50.3,37.4 50.3,32.8 Z" id="Shape" fill-rule="nonzero"></path>
            <path d="M135.6,30.3 L132.6,35.5 C130.3,33.9 127.2,32.9 124.5,32.9 C121.4,32.9 119.5,34.2 119.5,36.5 C119.5,39.3 122.9,39.9 127.9,41.7 C133.3,43.6 136.4,45.9 136.4,50.8 C136.4,57.6 131.1,61.4 123.4,61.4 C119.7,61.4 115.1,60.4 111.7,58.3 L113.9,52.5 C116.7,54 120.1,54.9 123.1,54.9 C127.2,54.9 129.1,53.4 129.1,51.2 C129.1,48.7 126.2,47.9 121.4,46.3 C116,44.5 112.3,42.1 112.3,36.6 C112.3,30.4 117.3,26.8 124.4,26.8 C129.3,27 133.3,28.6 135.6,30.3 Z" id="Shape" fill-rule="nonzero"></path>
            <polygon id="Shape" fill-rule="nonzero" points="158.7 33.6 158.7 60.9 151.7 60.9 151.7 33.6 141.6 33.6 141.6 27.6 168.8 27.6 168.8 33.6"></polygon>
            <polygon id="Shape" fill-rule="nonzero" points="183.5 33.5 183.5 41 196.9 41 196.9 47 183.5 47 183.5 54.8 199 54.8 199 60.8 176.5 60.8 176.5 27.6 199 27.6 199 33.6 183.5 33.6"></polygon>
            <path d="M214.6,54.4 L212.4,60.9 L205.1,60.9 L217.6,27.6 L224.6,27.6 L237.4,60.9 L229.8,60.9 L227.5,54.4 L214.6,54.4 Z M221.1,35.5 L216.6,48.8 L225.8,48.8 L221.1,35.5 Z" id="Shape" fill-rule="nonzero"></path>
            <polygon id="Shape" fill-rule="nonzero" points="273.3 40.5 264.2 60 260.3 60 251.3 40.7 251.3 61 244.6 61 244.6 27.6 251.3 27.6 262.5 51.7 273.3 27.6 280 27.6 280 60.9 273.3 60.9"></polygon>
            <path d="M293.5,31.8 C293.5,34.7 291.4,36.4 288.9,36.4 C286.4,36.4 284.3,34.6 284.3,31.8 C284.3,28.9 286.5,27.2 288.9,27.2 C291.3,27.1 293.5,28.9 293.5,31.8 Z M285,31.8 C285,34.2 286.7,35.7 288.8,35.7 C290.9,35.7 292.6,34.2 292.6,31.8 C292.6,29.4 290.9,27.9 288.8,27.9 C286.7,27.9 285,29.4 285,31.8 Z M288.9,29.4 C290.1,29.4 290.5,30 290.5,30.7 C290.5,31.3 290.1,31.7 289.7,32 L290.8,34 L289.9,34 L289,32.2 L288,32.2 L288,34 L287.3,34 L287.3,29.4 L288.9,29.4 Z M288.1,31.5 L288.9,31.5 C289.4,31.5 289.7,31.2 289.7,30.8 C289.7,30.4 289.5,30.1 288.9,30.1 L288.1,30.1 L288.1,31.5 Z" id="Shape" fill-rule="nonzero"></path>
            <path d="M319.4,43.2 C324.6,45.2 326.9,49.3 325.6,54.5 C324.8,57.7 322.6,59.4 319.7,60.3 C318.3,60.7 316.9,61 315.5,61 C311.6,61.1 307.2,61 303.3,61 C303.2,61 303.3,38.8 303.3,27.3 C303.3,27.3 315.5,27.1 318.3,27.9 C323.6,29.4 325.5,35.7 322.2,40.2 C321.3,41.5 320.4,42.1 319.4,43.2 Z M306.4,58 C309.9,58 313.2,58.2 316.5,58 C320.1,57.8 322.4,55.4 322.5,52.3 C322.6,48.6 320.9,46.2 317.1,45.8 C313.6,45.4 310,45.7 306.4,45.7 C306.4,49.6 306.4,53.8 306.4,58 Z M306.5,42.3 C309,42.3 311.4,42.4 313.7,42.2 C315,42.1 316.4,41.6 317.6,40.9 C319.8,39.7 320.7,37.2 320.3,34.4 C319.9,32.4 318.3,30.6 315.8,30.3 C312.7,29.9 306.5,30 306.5,30 C306.5,34.4 306.5,38.1 306.5,42.3 Z" id="Shape"></path>
            <path d="M400.4,60.9 L397.3,60.9 L397.3,30 L385.8,30 L385.8,27.1 L411.9,27.1 L411.9,29.9 L400.5,29.9 C400.4,40.3 400.4,50.5 400.4,60.9 Z" id="Shape"></path>
            <path d="M420.2,58.2 L436.6,58.2 L436.6,60.9 L417.1,60.9 L417.1,27.1 L420.3,27.1 C420.2,37.5 420.2,47.8 420.2,58.2 Z" id="Shape"></path>
            <path d="M371.5,60.9 L368.4,60.9 L368.4,30 L356.9,30 L356.9,27.1 L383,27.1 L383,29.9 L371.6,29.9 C371.5,40.3 371.5,50.5 371.5,60.9 Z" id="Shape"></path>
            <path d="M346.7,27.1 L342.2,27.1 C339.5,34.5 336.2,43.6 333.5,50.8 C332.4,53.7 330.9,57.7 329.7,60.9 L333.2,60.9 C333.2,60.9 336.7,52 336.6,52.1 C341.6,52 347.1,52.1 352.1,52.1 C352.9,54.3 355.4,61 355.4,61 L359,61 C358.8,60.5 358.7,60 358.6,59.8 C354.9,49.6 350.4,37.5 346.7,27.1 Z M337.6,48.9 C339.8,42.8 342,36.8 344.4,30.4 C346.7,36.7 348.8,42.7 351.1,48.9 L337.6,48.9 Z" id="Shape"></path>
            <path d="M443.4,27 C442.8,27 442.2,27.1 441.6,27.1 L441.6,60.9 L462.4,60.9 L462.4,58 L444.9,58 L444.9,45 L460.5,45 L460.5,42.2 L444.8,42.2 L444.8,29.9 L462.4,29.9 L462.4,27 L443.4,27 Z" id="Shape"></path>
        </g>
    </g>
</svg>
